packages/icons/web/flag_gb_small.svg

<svg width="24" height="24" viewBox="0 0 24 24" fill="none" xmlns="http://www.w3.org/2000/svg">
<path fill-rule="evenodd" clip-rule="evenodd" d="M5.5 6H18.5C19.6046 6 20.5 6.89543 20.5 8V16C20.5 17.1046 19.6046 18 18.5 18H5.5C4.39543 18 3.5 17.1046 3.5 16V8C3.5 6.89543 4.39543 6 5.5 6ZM5.5 6.5C4.67157 6.5 4 7.17157 4 8V16C4 16.8284 4.67157 17.5 5.5 17.5H18.5C19.3284 17.5 20 16.8284 20 16V8C20 7.17157 19.3284 6.5 18.5 6.5H5.5Z" fill="#D8DDE1"/>
<g clip-path="url(#clip0)">
<path fill-rule="evenodd" clip-rule="evenodd" d="M13.3364 17.5001H18.0266L13.3365 14.1966V17.5001H13.3364ZM4 13.8055V16.1046C4 16.1923 4.00872 16.2776 4.02391 16.3608L7.60653 13.8657L4 13.8055ZM4.02423 7.63761C4.00827 7.72292 4.00016 7.80957 4 7.89644V10.0814L7.57891 10.1414L4.02423 7.63761ZM18.1804 6.50098H13.3364V9.87484L18.1804 6.50098ZM20 10.0814V7.89644C20 7.80776 19.991 7.7214 19.9754 7.63761L16.4208 10.1414L20 10.0814ZM19.976 16.3612C19.991 16.2776 20 16.1923 20 16.1046V13.8055L16.3931 13.8657L19.9761 16.3612H19.976ZM10.6632 6.50098H5.81926L10.6632 9.87484V6.50098ZM5.97313 17.5001H10.6632V14.1966L5.97305 17.5001" fill="#1A3179"/>
<path fill-rule="evenodd" clip-rule="evenodd" d="M10.6632 9.87395L5.81926 6.50008H5.35982C5.07104 6.50009 4.78983 6.59491 4.55734 6.77067L9.32644 10.1918H8.13099L4.13174 7.29917C4.0819 7.40646 4.04579 7.51992 4.02431 7.63672L7.57891 10.1405L4 10.0806V10.8252L8.65384 10.8975L11.1979 10.9367V6.5H10.6632V9.87403L10.6632 9.87395ZM12.8019 13.1709V17.4992H13.3365V14.1957L18.0266 17.4992H18.6399C18.9686 17.4992 19.2699 17.3793 19.5051 17.1801L14.6736 13.9161H15.8691L19.9034 16.6172C19.9356 16.5341 19.9599 16.4481 19.9761 16.3603L16.3931 13.8648L20 13.8046V13.0599L15.3406 13.1316L12.8019 13.1709ZM4 13.0599V13.8046L7.60653 13.8648L4.02391 16.36C4.08203 16.6816 4.24866 16.9719 4.49458 17.1801L9.32644 13.9161H10.5221L5.37751 17.4992H5.97305L10.6632 14.1957V17.4992H11.1979V13.1709L8.65877 13.1316L4 13.0599ZM16.4208 10.1405L19.9754 7.63672C19.9105 7.28226 19.7151 6.9762 19.4423 6.77067L14.6736 10.1918H13.4775L18.624 6.50008H18.1804L13.3364 9.87411V6.5H12.8019V10.9367L15.3459 10.8975L20 10.8252V10.0806L16.4208 10.1405Z" fill="white"/>
<path fill-rule="evenodd" clip-rule="evenodd" d="M15.3459 10.8975L12.8019 10.9367V6.5H11.1979V10.9367L8.65384 10.8975L4 10.8252V13.0599L8.65877 13.1316L11.1979 13.1709V17.4992H12.8019V13.1709L15.3406 13.1316L20 13.0599V10.8252L15.3458 10.8975" fill="#FF2B2D"/>
<path fill-rule="evenodd" clip-rule="evenodd" d="M8.13011 10.1918H9.32556L4.55645 6.77067C4.37416 6.90799 4.22792 7.08959 4.13086 7.29917L8.13011 10.1918ZM13.4767 10.1918H14.6728L19.4415 6.77067C19.209 6.59491 18.9278 6.50006 18.639 6.5H18.6231L13.4767 10.1918ZM14.6728 13.9161L19.5042 17.1801C19.6812 17.03 19.8182 16.8363 19.9024 16.6172L15.8682 13.9161H14.6728ZM9.32556 13.9161L4.49369 17.1801C4.73702 17.3867 5.04308 17.4996 5.35894 17.4992H5.37671L10.5212 13.9161H9.32556Z" fill="#FF2B2D"/>
</g>
<defs>
<clipPath id="clip0">
<rect x="4" y="6.5" width="16" height="11" fill="white"/>
</clipPath>
</defs>
</svg>

<svg width="24" height="24" fill="none" xmlns="http://www.w3.org/2000/svg">
    <path fill-rule="evenodd" clip-rule="evenodd" d="M5.5 6h13a2 2 0 012 2v8a2 2 0 01-2 2h-13a2 2 0 01-2-2V8a2 2 0 012-2zm0 .5A1.5 1.5 0 004 8v8a1.5 1.5 0 001.5 1.5h13A1.5 1.5 0 0020 16V8a1.5 1.5 0 00-1.5-1.5h-13z" fill="#D8DDE1"/>
    <g clip-path="url(#clip0)" fill-rule="evenodd" clip-rule="evenodd">
        <path d="M13.336 17.5h4.69l-4.69-3.303V17.5zM4 13.806v2.299c0 .087.009.173.024.256l3.583-2.495L4 13.806zm.024-6.168A1.422 1.422 0 004 7.896v2.185l3.579.06-3.555-2.503zM18.18 6.5h-4.844v3.374L18.18 6.5zM20 10.08V7.896c0-.088-.009-.175-.025-.258l-3.554 2.503 3.579-.06zm-.024 6.28c.015-.083.024-.169.024-.256v-2.3l-3.607.06 3.583 2.496zM10.663 6.5H5.82l4.844 3.374V6.5zm-4.69 11h4.69v-3.304L5.973 17.5" fill="#1A3179"/>
        <path d="M10.663 9.874L5.82 6.5h-.46c-.288 0-.57.095-.802.27l4.77 3.422H8.13l-4-2.893c-.05.107-.085.22-.107.338L7.58 10.14 4 10.08v.745l4.654.073 2.544.039V6.5h-.535v3.374zm2.139 3.297v4.328h.534v-3.303l4.69 3.303h.614c.329 0 .63-.12.865-.319l-4.831-3.264h1.195l4.034 2.701c.033-.083.057-.169.073-.257l-3.583-2.495 3.607-.06v-.745l-4.66.072-2.538.039zM4 13.06v.745l3.607.06-3.583 2.495a1.4 1.4 0 00.47.82l4.832-3.264h1.196L5.378 17.5h.595l4.69-3.303V17.5h.535v-4.328l-2.54-.04L4 13.06zm12.42-2.92l3.555-2.503a1.399 1.399 0 00-.533-.866l-4.768 3.42h-1.197l5.147-3.69h-.444l-4.844 3.373V6.5h-.534v4.437l2.544-.04L20 10.826v-.744l-3.58.06z" fill="#fff"/>
        <path d="M15.346 10.898l-2.544.039V6.5h-1.604v4.437l-2.544-.04L4 10.826v2.235l4.659.072 2.539.039V17.5h1.604v-4.328l2.539-.04L20 13.06v-2.235l-4.654.073" fill="#FF2B2D"/>
        <path d="M8.13 10.192h1.196L4.556 6.77a1.395 1.395 0 00-.425.528l4 2.893zm5.347 0h1.196l4.769-3.421a1.33 1.33 0 00-.803-.271h-.016l-5.146 3.692zm1.196 3.724l4.831 3.264a1.39 1.39 0 00.398-.563l-4.034-2.7h-1.195zm-5.347 0L4.494 17.18c.243.207.55.32.865.32h.018l5.144-3.584H9.326z" fill="#FF2B2D"/>
    </g>
    <defs>
        <clipPath id="clip0">
            <path fill="#fff" d="M4 6.5h16v11H4z"/>
        </clipPath>
    </defs>
</svg>
